!!!NB: Melody moves away from top-most voice
**kern	**kern	**kern	**kern	**harm
*staff4	*staff3	*staff2	*staff1	*staff1
=1-	=1-	=1-	=1-	=1-
*clefF4	*clefG2	*clefG2	*clefG2	*
*k[]	*k[]	*k[]	*k[]	*
*M2/4	*M2/4	*M2/4	*M2/4	*
*	*	*	*MM120	*
*C:	*C:	*C:	*C:	*C:
2r	4r	4r	2r	.
.	8r	8r	.	.
.	16c/LL	16e/LL	.	I
.	16d/JJ	16f/JJ	.	.
=2	=2	=2	=2	=2
2r	8e/L	8g/L	4r	I6
.	8e/J	8g/J	.	.
.	8e/L	8g/L	8r	.
.	8e/J	8g/J	8cc\	.
=3	=3	=3	=3	=3
8r	4.f/	4.g/	16b\LL	V42
.	.	.	16cc\	.
16G\LL	.	.	16dd\	.
16A\JJ	.	.	16b\JJ	.
4B'\	.	.	4g'/	V65
.	16c/LL	16e/LL	.	I
.	16d/JJ	16f/JJ	.	.
=4	=4	=4	=4	=4
2r	8e/L	8g/L	4r	I6
.	8e/J	8g/J	.	.
.	8e/L	8g/L	8r	.
.	8e/J	8g/J	8gg\	.
=5	=5	=5	=5	=5
!!linebreak:original
8r	4.f/	4.g/	16ff\LL	V42
.	.	.	16ee\	.
16B\LL	.	.	16dd\	.
16c\JJ	.	.	16cc\JJ	.
4d'\	.	.	4b'\	V43
.	16c/LL	16e/LL	.	I
.	16d/JJ	16f/JJ	.	.
=6	=6	=6	=6	=6
2r	8e/L	8g/L	4r	I6
.	8e/J	8g/J	.	.
.	8e/L	8g/L	8r	.
.	8e/J	8g/J	8cc\	.
=7	=7	=7	=7	=7
4r	4f/	4.g/	16b\LL	V42
.	.	.	16cc\	.
.	.	.	16dd\	.
.	.	.	16b\JJ	.
8r	8e/L	.	8cc\L	I6
8C/	8c/J	8G/	8ee\J	I
=8	=8	=8	=8	=8
8D\L	16d/LL	4A/	4g/	ii
.	16c/	.	.	.
8D\J	16B/	.	.	.
.	16c/JJ	.	.	.
8GG/L	8d/L	4B/	8.f/L	V7
8GG/J	8d/J	.	.	.
.	.	.	32e/LL	.
.	.	.	32f/JJJ	.
=9	=9	=9	=9	=9
16CC/LL	4c/	4c/	4e/	I
16C/	.	.	.	.
16BB/	.	.	.	.
16C/JJ	.	.	.	.
16D/LL	8r	4r	8r	.
16C/	.	.	.	.
*	*clefF4	*	*	*
16BB/	16E\LL	.	16cc\LL	.
16C/JJ	16G\JJ	.	16ee\JJ	.
=10	=10	=10	=10	=10
!!linebreak:original
16AA/LL	8F\L	8cc\L	8ff\L	IV6
16C/	.	.	.	.
16GG/	8G\J	8cc\J	8ee\J	I64
16C/JJ	.	.	.	.
16AA/LL	8A\L	8cc\L	8ff\L	IV
16C/	.	.	.	.
16FF/	8F\J	8cc\J	8aa\J	.
16C/JJ	.	.	.	.
=11	=11	=11	=11	=11
16EE/LL	4C/	4cc\	16gg\LL	I6
16C/	.	.	16aa\	.
16DD/	.	.	16ff\	ii7
16C/JJ	.	.	16gg\JJ	.
16CC/LL	8r	4r	8ee\L	I
16C/	.	.	.	.
16BB-/	16E\LL	.	16cc\L	V42/IV
16C/JJ	16G\JJ	.	16ee\JJ	.
=12	=12	=12	=12	=12
16AA/LL	8F\L	8cc\L	8ff\L	IV6
16C/	.	.	.	.
16GG/	8G\J	8cc\J	8ee\J	.
16C/JJ	.	.	.	.
16AA/LL	8A\L	8cc\L	8ff\L	.
16C/	.	.	.	.
16FF/	8F\J	8cc\J	8aa\J	IV
16C/JJ	.	.	.	.
=13	=13	=13	=13	=13
16EE/LL	4C/	4cc\	16gg\LL	I6
16C/	.	.	16aa\	.
16DD/	.	.	16ff\	ii7
16C/JJ	.	.	16gg\JJ	.
16CC/LL	8r	4r	8ee\L	I
16C/	.	.	.	.
*	*clefG2	*	*	*
16BB-/	16e/LL	.	16cc\L	V42/IV
16C/JJ	16g/JJ	.	16ee\JJ	.
=14	=14	=14	=14	=14
!!pagebreak:original
16AA/LL	8f/L	8cc\L	8ff\L	IV6
16C/	.	.	.	.
16GG/	8g/J	8cc\J	8ee\J	I64
16C/JJ	.	.	.	.
16AA/LL	8a/L	8cc\L	8ff\L	IV
16C/	.	.	.	.
16FF/	8f/J	8cc\J	8aa\J	.
16C/JJ	.	.	.	.
=15	=15	=15	=15	=15
16EE/LL	4c/	4cc\	8gg\L	I6
16C/	.	.	.	.
16DD/	.	.	8bb\J	ii7
16C/JJ	.	.	.	.
16EE/LL	4r	8r	8ccc\L	I
16C/	.	.	.	.
16CC/	.	8g/	8eee\J	.
16C/JJ	.	.	.	.
=16	=16	=16	=16	=16
8DD/L	8r	16a\LL	2gg\	ii7
.	.	16cc\	.	.
8D/J	8a/	16b\	.	.
.	.	16cc\JJ	.	.
8D\L	8a/L	16dd\LL	.	.
.	.	16cc\	.	.
8D\J	8a/J	16b\	.	.
.	.	16cc\JJ	.	.
=17	=17	=17	=17	=17
8DD/L	8r	16a\LL	2ff#\	V7/V
.	.	16cc\	.	.
8D/J	8a/	16b\	.	.
.	.	16cc\JJ	.	.
8D\L	8a/L	16dd\LL	.	.
.	.	16cc\	.	.
8D\J	8a/J	16b\	.	.
.	.	16cc\JJ	.	.
=18	=18	=18	=18	=18
8GG/L	4g'/	4b'\	16ff\LL	V7
.	.	.	16gg\	.
8G/J	.	.	16ff\	.
.	.	.	16dd\JJ	.
8G\L	4d'/	4dd'\	16bb\LL	.
.	.	.	16ccc\	.
8G\J	.	.	16bb\	.
.	.	.	16ff\JJ	.
=19	=19	=19	=19	=19
!!linebreak:original
8GG/L	4B'/	4ff'\	16ddd\LL	.
.	.	.	16eee\	.
8G/J	.	.	16ddd\	.
.	.	.	16bb\JJ	.
8G\L	4r	8ddd\L	8fff\L	.
8G\J	.	8ddd\J	8fff\J	.
=20	=20	=20	=20	=20
4GG'/	16B/LL	4ddd'\	4fff'\	.
.	16c/	.	.	.
.	16B/	.	.	.
.	16G/JJ	.	.	.
4GG'/	16d/LL	4bb'\	4ddd'\	.
.	16e/	.	.	.
.	16d/	.	.	.
.	16G/JJ	.	.	.
=21	=21	=21	=21	=21
4GG'/	4f'/	4ff'\	4bb'\	.
4r	4r	4r	4r	.
=22	=22	=22	=22	=22
*	*	*clefF4	*	*
4GG'/	4d'/	16B\LL	4ff'\	.
.	.	16c\	.	.
.	.	16B\	.	.
.	.	16G\JJ	.	.
4GG'/	4f'/	16d/LL	4dd'\	.
*	*	*clefG2	*	*
.	.	16e/	.	.
.	.	16d/	.	.
.	.	16G/JJ	.	.
=23	=23	=23	=23	=23
2GG/	4.d/	4.f/	2b\	V7
.	16c/LL	16e/LL	.	I
.	16d/JJ	16f/JJ	.	.
=24	=24	=24	=24	=24
4r	8e/L	8g/L	2r	I6
.	8e/J	8g/J	.	.
8r	8e/L	8g/L	.	.
8c\	8e/J	8g/J	.	.
=25	=25	=25	=25	=25
!!linebreak:original
16B\LL	4.f/	4.g/	2r	V7
16c\	.	.	.	.
16d\	.	.	.	.
16B\JJ	.	.	.	.
4G'\	.	.	.	.
.	16c/LL	16e/LL	.	I
.	16d/JJ	16f/JJ	.	.
=26	=26	=26	=26	=26
2r	8e/L	8g/L	4r	I6
.	8e/J	8g/J	.	.
.	8e/L	8g/L	8r	.
.	8e/J	8g/J	8ccc\	.
=27	=27	=27	=27	=27
4G\	16d/LL	16f/LL	16bb\LL	V7
.	16e/	16g/	16ccc\	.
.	16d/	16f/	16ddd\	.
.	16c/JJ	16e/JJ	16eee\JJ	.
4r	8B/L	8d/L	4fff'\	.
.	16c/L	16e/L	.	I
.	16d/JJ	16f/JJ	.	.
=28	=28	=28	=28	=28
2r	8e/L	8g/L	4r	I6
.	8e/J	8g/J	.	.
.	8e/L	8g/L	8r	.
.	8e/J	8g/J	8cc\	.
=29	=29	=29	=29	=29
2r	8d/L	8f/L	8cc\L	ii
.	16d/L	16f/L	16b\L	.
.	16e/JJ	16g/JJ	16cc\JJ	.
.	8f/L	8a/L	8dd\L	ii6
.	8f/J	8a/J	8dd\J	.
=30	=30	=30	=30	=30
!!pagebreak:original
2r	8e/L	8g/L	8dd\L	viio65/ii
.	16e/L	16g/L	16cc#\L	.
.	16f/JJ	16a/JJ	16dd\JJ	.
.	8g/L	8b-/L	8ee\L	.
.	8g/J	8b-/J	8ee\J	.
=31	=31	=31	=31	=31
2r	8f/L	[2a/	16ee\LL	ii6
.	.	.	16dd\	.
.	8f/J	.	16ff\	.
.	.	.	16ee\JJ	.
.	8f/L	.	16gg\LL	.
.	.	.	16ff\	.
.	8f/J	.	16aa\	.
.	.	.	16gg\JJ	.
=32	=32	=32	=32	=32
2r	4f/	2a/]	16bb-\LL	ii6
.	.	.	16aa\	.
.	.	.	16gg\	.
.	.	.	16ff\JJ	.
.	4f#/	.	16ee\LL	V65/V
.	.	.	16dd\	.
.	.	.	16ee\	.
.	.	.	16cc\JJ	.
=33	=33	=33	=33	=33
4r	4g/	4g/	16b/LL	V
.	.	.	16g/	.
.	.	.	16a/	.
.	.	.	16b/JJ	.
8r	8r	4r	16cc\LL	.
.	.	.	16dd\	.
*G:	*G:	*G:	*G:	*G:
16G\LL	16B/LL	.	16ee\	I
16A\JJ	16c/JJ	.	16ff#\JJ	.
=34	=34	=34	=34	=34
!!linebreak:original
8B\L	8d/L	2r	16gg\LL	I6
.	.	.	16aa\	.
8B\J	8d/J	.	16bb\	.
.	.	.	16ccc\JJ	.
8B\L	8d/L	.	16ddd\LL	.
.	.	.	16bb\	.
8B\J	8d/J	.	16aa\	.
.	.	.	16gg\JJ	.
=35	=35	=35	=35	=35
4A\	4c/	4r	16ff#\LL	viio6
.	.	.	16gg\	.
.	.	.	16aa\	.
.	.	.	16gg\JJ	.
4r	8r	8r	16bb\LL	.
.	.	.	16aa\	.
.	16d/LL	16f#/LL	16ccc\	V
.	16e/JJ	16g/JJ	16bb\JJ	.
=36	=36	=36	=36	=36
2r	8f#/L	8a/L	16ddd\LL	V6
.	.	.	16ccc\	.
.	8f#/J	8a/J	16bb\	.
.	.	.	16aa\JJ	.
.	8f#/L	8a/L	16gg\LL	.
.	.	.	16ff#\	.
.	8f#/J	8a/J	16ee\	.
.	.	.	16dd\JJ	.
=37	=37	=37	=37	=37
4r	4g/	4g/	16cc\LL	I
.	.	.	16b\	.
.	.	.	16dd\	.
.	.	.	16cc\JJ	.
8r	8r	8r	16ee\LL	.
.	.	.	16dd\	.
16B\LL	16d/LL	16B/LL	16gg\	.
16A\JJ	16c/JJ	16c/JJ	16ff#\JJ	.
=38	=38	=38	=38	=38
!!linebreak:original
*	*clefF4	*	*	*
8G\L	8B\L	8d/L	16aa\LL	I
.	.	.	16gg\	.
8G\J	8B\J	8d/J	16bb\	.
.	.	.	16gg\JJ	.
8G\L	8B\L	8d/L	16ff#\LL	.
.	.	.	16ee\	.
8E\J	16c#\L	8g/J	16dd\	viio6/V
.	16e\JJ	.	16cc#\JJ	.
=39	=39	=39	=39	=39
*	*clefG2	*	*	*
4D\	4.d/	4f#/	16d/LL	V
.	.	.	16dd/	.
.	.	.	16ee-/	.
.	.	.	16dd/JJ	.
4r	.	8r	16een\LL	.
.	.	.	16dd\	.
.	8d/	8cc\	16ff#\	V7
.	.	.	16dd\JJ	.
=40	=40	=40	=40	=40
4r	16dd\LL	16b\LL	16gg\LL	I
.	16ee\	16cc\	16dd\	.
.	16cc\	16a\	16aa\	.
.	16dd\JJ	16b\JJ	16dd\JJ	.
8r	8b/L	4g'/	16bb\LL	.
.	.	.	16dd\	.
8B\	8g/J	.	16ddd\	I6
.	.	.	16dd\JJ	.
=41	=41	=41	=41	=41
!!pagebreak:original
16A\LL	8f#/L	4r	16ccc\LL	viio6
16B\	.	.	16ddd\	.
16G\	8g/J	.	16bb\	I
16A\JJ	.	.	16ccc\JJ	.
4F#'\	8a/L	8r	16aa\LL	V65
.	.	.	16dd\	.
.	8d/J	8cc\	16ee\	.
.	.	.	16ff#\JJ	.
=42	=42	=42	=42	=42
4r	16dd\LL	16b\LL	16gg\LL	I6
.	16ee\	16cc\	16dd\	.
.	16cc\	16a\	16aa\	.
.	16dd\JJ	16b\JJ	16dd\JJ	.
8r	8b/L	4g'/	16bb\LL	.
.	.	.	16dd\	.
8BB/	8g/J	.	16ddd\	.
.	.	.	16dd\JJ	.
=43	=43	=43	=43	=43
16AA/LL	8f#/L	4r	16ccc\LL	viio6
16BB/	.	.	16ddd\	.
16GG/	8g/J	.	16bb\	I
16AA/JJ	.	.	16ccc\JJ	.
4FF#'/	8a/L	8r	16aa\LL	V65
.	.	.	16dd\	.
.	8d/J	8cc\	16ee\	.
.	.	.	16ff#\JJ	.
=44	=44	=44	=44	=44
!!linebreak:original
4r	16dd\LL	16b\LL	16gg\LL	I6
.	16ee\	16cc\	16dd\	.
.	16cc\	16a\	16aa\	.
.	16dd\JJ	16b\JJ	16dd\JJ	.
8r	8b/L	4g'/	16bb\LL	.
.	.	.	16dd\	.
8B\	8g/J	.	16ddd\	.
.	.	.	16dd\JJ	.
=45	=45	=45	=45	=45
16A\LL	8f#/L	4r	16ccc\LL	viio6
16B\	.	.	16ddd\	.
16G\	8g/J	.	16bb\	.
16A\JJ	.	.	16ccc\JJ	.
8F#\L	8a/L	8r	16aa\LL	V65
.	.	.	16dd\	.
8c\J	8d/J	8dd\	16ee\	V42
.	.	.	16ff#\JJ	.
=46	=46	=46	=46	=46
4B\	8b/L	16gg\LL	4gg\	I6
.	.	16aa\	.	.
.	8a/J	16ff#\	.	.
.	.	16gg\JJ	.	.
4r	8g/L	16ee\LL	8r	.
.	.	16ff#\	.	.
.	8f#/J	16dd\	8dd\	.
.	.	16ee\JJ	.	.
=47	=47	=47	=47	=47
!!linebreak:original
*clefG2	*	*	*	*
8e/L	8g/L	4cc'\	16ccc\LL	IV6
.	.	.	16ddd\	.
8d/J	8f#/J	.	16bb\	.
.	.	.	16ccc\JJ	.
16c/LL	16e/LL	4r	16aa\LL	.
16d/	16f#/	.	16bb\	.
16B/	16d/	.	16gg\	.
16c/JJ	16e/JJ	.	16aa\JJ	.
=48	=48	=48	=48	=48
*clefF4	*	*	*	*
16A\LL	16c\LL	2r	16ff#\LL	V65
16B\	16d\	.	16gg\	.
*	*clefF4	*	*	*
16G\	16B\	.	16ee\	.
16A\JJ	16c\JJ	.	16ff#\JJ	.
8F#\L	8A\L	.	16dd\LL	.
.	.	.	16ee\	.
8A\J	8F#\J	.	16cc\	.
.	.	.	16dd\JJ	.
=49	=49	=49	=49	=49
8G\L	[2G\	4r	16cc\LL	I
.	.	.	16b\	.
8E\J	.	.	16dd\	IV6
.	.	.	16cc\JJ	.
8BB/L	.	8r	16ee\LL	I6
.	.	.	16dd\	.
8C/J	.	16e/LL	16ee\	IV
.	.	16c/JJ	16gg\JJ	.
=50	=50	=50	=50	=50
!!pagebreak:original
4D\	4G\]	4B/	4g/	V64
4DD/	4F#\	16d/LL	16b/LL	V7
.	.	16c/	16a/	.
.	.	16B/	16b/	.
.	.	16c/JJ	16a/JJ	.
=51	=51	=51	=51	=51
4GG/	4G\	4B/	4g/	I
8r	8r	4r	4r	.
16G\LL	16B\LL	.	.	.
16A\JJ	16c\JJ	.	.	.
=52	=52	=52	=52	=52
8B\L	8d\L	2r	2r	I6
8B\J	8d\J	.	.	.
16B\LL	16d\LL	.	.	.
16G\	16B\	.	.	.
16A\	16c\	.	.	.
16B\JJ	16d\JJ	.	.	.
=53	=53	=53	=53	=53
8c\L	8e\L	4r	4r	IV
8c\J	8e\J	.	.	.
4c'\	4e'\	8r	8r	.
.	.	16dd\LL	16ff#\LL	V
.	.	16ee\JJ	16gg\JJ	.
=54	=54	=54	=54	=54
2r	2r	8ff#\L	8aa\L	V6
.	.	8ff#\J	8aa\J	.
.	.	16ff#\LL	16aa\LL	.
.	.	16dd\	16ff#\	.
.	.	16ee\	16gg\	.
.	.	16ff#\JJ	16aa\JJ	.
=55	=55	=55	=55	=55
!!linebreak:original
2r	4r	8gg\L	8bb\L	I6
.	.	8gg\J	8bb\J	.
.	8r	8gg\L	4bb'\	.
*	*clefF4	*	*	*
.	16G\LL	16b\L	.	.
.	16A\JJ	16cc\JJ	.	.
=56	=56	=56	=56	=56
2r	16B\LL	16dd\LL	4r	.
.	16c\	16ee\	.	.
.	16B\	16dd\	.	.
.	16c\JJ	16ee\JJ	.	.
.	16B\LL	16dd\LL	[4gg\	.
.	16G\	16b\	.	.
.	16A\	16cc\	.	.
.	16B\JJ	16dd\JJ	.	.
=57	=57	=57	=57	=57
*	*clefG2	*	*	*
2r	16c/LL	16ee\LL	8gg\L]	IV
.	16d/	16ff#\	.	.
.	16c/	16ee\	8gg#\J	.
.	16d/JJ	16ff#\JJ	.	.
.	16c/LL	16ee\LL	[4aa\	ii
.	16A/	16cc\	.	.
.	16B/	16dd\	.	.
.	16c/JJ	16ee\JJ	.	.
=58	=58	=58	=58	=58
2r	16d/LL	16ff#\LL	8aa\L]	V
.	16e/	16gg\	.	.
.	16d/	16ff#\	8aa#\J	.
.	16e/JJ	16gg\JJ	.	.
.	16d/LL	16ff#\LL	[4bb\	iii
.	16B/	16dd\	.	.
.	16c/	16ee\	.	.
.	16d/JJ	16ff#\JJ	.	.
=59	=59	=59	=59	=59
!!linebreak:original
2r	16e/LL	16gg\LL	16bb\LL]	IV7
.	16c/	16ee\	16ddd\	.
.	16d/	16ff#\	16ccc\	.
.	16e/JJ	16gg\JJ	16bb\JJ	.
.	16f#/LL	16aa\LL	8aa\L	V
.	16d/	16ff#\	.	.
.	16e/	16gg\	8ddd\J	.
.	16f#/JJ	16aa\JJ	.	.
=60	=60	=60	=60	=60
8r	4g/	4.gg\	4.bb\	I
8G\	.	.	.	IV6
8E\L	4r	.	.	.
8C\J	.	8aa\	8ccc\	ii6
=61	=61	=61	=61	=61
4D\	8r	4ff#\	8aa\L	V
.	8dd\	.	8ddd\J	.
4r	8cc#\L	4r	8ccc#\L	.
.	8ccn\J	.	8cccn\J	.
=62	=62	=62	=62	=62
2r	8b/L	4.gg\	4.bb\	vi
.	8g/J	.	.	.
.	8e/L	.	.	.
.	8c/J	8aa\	8ccc\	ii6
=63	=63	=63	=63	=63
2r	4d/	8ff#\L	8aa\L	V
.	.	8dd\J	8ddd\J	.
.	4r	8cc#\L	8ccc#\L	.
.	.	8ccn\J	8cccn\J	.
=64	=64	=64	=64	=64
!!pagebreak:original
8r	8r	4.b\	4.bb\	I6
*clefG2	*	*	*	*
8d#/	8f#/	.	.	V6/vi
8d#/L	8f#/L	.	.	.
8e/J	8g/J	8cc\	8ccc\	IV6
=65	=65	=65	=65	=65
8c/L	8f#/L	8a\L	8aa\L	V43/V
8B/J	8d/J	8gg#\J	8ddd\J	viio6/V/V
*clefF4	*	*	*	*
8A\L	8e/L	8aa\L	8ccc#\L	V/V
8D\J	8a/J	8ff#\J	8cccn\J	V7
=66	=66	=66	=66	=66
8G\L	8d/	8gg\	8bb\L	I
8c\J	4a/	4ee\	8aa\J	ii6
8c\L	.	.	8ccc\L	.
*clefG2	*	*	*	*
8c\J	8cc\	8ee\	8aa\J	.
=67	=67	=67	=67	=67
[2d/	8b\L	8dd\L	2gg\	C64
.	8b-\J	8cc#\J	.	.
.	8a/L	8ccn\L	.	.
.	8g/J	8b\J	.	.
=68	=68	=68	=68	=68
8d/L]	2f#/	2cc\	2aa\	V7
8e-/J	.	.	.	.
8d/L	.	.	.	.
8D/J	.	.	.	.
=69	=69	=69	=69	=69
!!linebreak:original
4.g/	8g\L	4.b\	4gg\	I
*	*clefF4	*	*	*
.	8G\J	.	.	.
.	8E\L	.	4r	IV
8a/	8C\J	8cc\	.	.
=70	=70	=70	=70	=70
4f#/	8D\L	8a\L	2r	V6
.	8d\J	8dd\J	.	.
4r	8c#\L	8cc#\L	.	.
.	8cn\J	8ccn\J	.	V65
=71	=71	=71	=71	=71
8r	4B\	8b\	4.bb\	I
*clefF4	*	*	*	*
8G\	.	4gg\	.	.
8E\L	4r	.	.	.
8C\J	.	8aa\	8ccc\	ii6
=72	=72	=72	=72	=72
4D\	2r	8ff#\L	8aa\L	V
.	.	8dd\J	8ddd\J	.
4r	.	8cc#\L	8ccc#\L	.
.	.	8ccn\J	8cccn\J	V7
=73	=73	=73	=73	=73
8r	8r	4.b\	4.bb\	I6X
*clefG2	*clefG2	*	*	*
8d#/	8f#/	.	.	V6/vi
8d#/L	8f#/L	.	.	.
8e/J	8g/J	8cc\	8ccc\	IV6
=74	=74	=74	=74	=74
!!linebreak:original
8c/L	8f#/L	8a\L	8aa\L	V42
8B/J	8d/J	8gg#\J	8ddd\J	I6
*clefF4	*	*	*	*
8A\L	8e/L	8aa\L	8ccc#\L	V/V
8D\J	8a/J	8ff#\J	8cccn\J	V7
=75	=75	=75	=75	=75
8G\L	8g/	8gg\	8bb\L	I
8c\J	4a/	4ee\	8aa\J	ii6
8c\L	.	.	8ccc\L	.
8c\J	8cc\	8ee\	8aa\J	.
=76	=76	=76	=76	=76
2d\	8b\L	8dd\L	2gg\	C64
.	8b-\J	8cc#\J	.	.
.	8a/L	8ccn\L	.	.
.	8g/J	8b\J	.	.
=77	=77	=77	=77	=77
8E-\L	2f#/	2cc\	2aa\	V7
8D\J	.	.	.	.
8DD/L	.	.	.	.
8D/J	.	.	.	.
=78	=78	=78	=78	=78
8GG/L	4g/	4b\	4gg\	I
8GG/J	.	.	.	.
8GG/L	8r	8r	4r	.
8GG/J	16A/LL	16f#/LL	.	.
.	16B/JJ	16g/JJ	.	.
=79	=79	=79	=79	=79
8GG/L	8c/L	8a/L	4r	IV64
8GG/J	8c/J	8a/J	.	.
8GG/L	8c/L	8a/L	8r	.
8GG/J	8c/J	8a/J	8ff#\	viio
=80	=80	=80	=80	=80
!!pagebreak:original
*	*clefF4	*	*	*
8GG/L	4B\	4g/	16gg\LL	I
.	.	.	16aa\	.
8GG/J	.	.	16bb\	.
.	.	.	16gg\JJ	.
8GG/L	8r	8r	4dd'\	.
8GG/J	16F#\LL	16A/LL	.	.
.	16G\JJ	16B/JJ	.	.
=81	=81	=81	=81	=81
8GG/L	8A\L	8c/L	4r	ii42
8GG/J	8A\J	8c/J	.	.
8GG/L	8A\L	8c/L	8r	.
8GG/J	8A\J	8c/J	8f#/	viio6
=82	=82	=82	=82	=82
8GG/L	4G\	4B/	16g/LL	I
.	.	.	16a/	.
8GG/J	.	.	16b/	.
.	.	.	16g/JJ	.
8GG\L	8r	4r	4d'/	.
16G\L	16B\LL	.	.	.
16A\JJ	16c\JJ	.	.	.
=83	=83	=83	=83	=83
8B\L	8d\L	2r	2r	.
8B\J	8d\J	.	.	.
8B/L	8d\L	.	.	.
*clefG2	*	*	*	*
16B/L	16d\L	.	.	.
16c/JJ	16e\JJ	.	.	.
=84	=84	=84	=84	=84
8d/L	8f\L	4r	4r	.
8d/J	8f\J	.	.	.
4d'/	4f'\	8r	8r	.
*C:	*C:	*C:	*C:	*C:
.	.	16g/LL	16b\LL	V7
.	.	16a/JJ	16cc\JJ	.
=85	=85	=85	=85	=85
!!linebreak:original
2r	2r	8b/L	8dd\L	V7
.	.	8b/J	8dd\J	.
.	.	8b\L	8dd\L	.
.	.	16b\L	16dd\L	.
.	.	16cc\JJ	16ee\JJ	.
=86	=86	=86	=86	=86
2r	2r	8dd\L	8ff\L	V7
.	.	8dd\J	8ff\J	.
.	.	4dd'\	4ff'\	.
*-	*-	*-	*-	*-
